X: 6050
T: Cape Clear
R: mazurka
M: 3/4
K: Dmajor
B2efJ{a}g2-|(3g{a}gf {ef}ed JB2-|B4z2|{c}(3BAF JG2 (3A{c}BA|GBJA3{c}A|.G/ zE/{A}E4-|
E6|z3Bef|J{a}g4{a}gf|{a}edB2z2|Jb6-|b2z2Jb{c'}b|{c'}bag3a/g/|
(3f/g/f/ e.gz2e/Jf/|f3 {a}f{a}f e|{a}e6-|e3z3|b2Jb2{c'}ba|
g3-g2z|zg/a/.bJa3|{c'}ag{a}f3g|.azJg3{a}g|fe.ge{a}f2-|
fg//f//g//f//e2{a}e2-|^d3JB3-|B4z2|{c}BAG3.G/.G/|A B/c/ dBe2-|
e2{a}e^de{a}f-|f6|z2Jb2{c'}ba|Jg3{a}gfe|.gzeJf3-|f3/2g//f//g//f//g//f//e2{a}e-|e6-|e2z4|

